images/tiktok.svg

<svg width="39" height="39" viewBox="0 0 39 39" fill="none" xmlns="http://www.w3.org/2000/svg">
<path d="M26.9748 9.4575C25.8642 8.18923 25.2521 6.56077 25.2523 4.875H20.231V25.025C20.1931 26.1157 19.733 27.149 18.9478 27.9069C18.1625 28.6649 17.1136 29.0882 16.0223 29.0875C13.7148 29.0875 11.7973 27.2025 11.7973 24.8625C11.7973 22.0675 14.4948 19.9712 17.2735 20.8325V15.6975C11.6673 14.95 6.75977 19.305 6.75977 24.8625C6.75977 30.2738 11.2448 34.125 16.006 34.125C21.1085 34.125 25.2523 29.9813 25.2523 24.8625V14.6413C27.2884 16.1035 29.733 16.8881 32.2398 16.8838V11.8625C32.2398 11.8625 29.1848 12.0088 26.9748 9.4575Z" fill="black"/>
</svg>

<svg xmlns="http://www.w3.org/2000/svg" width="39" height="39" fill="none" viewBox="0 0 39 39"><path fill="#000" d="M26.975 9.458a6.96 6.96 0 0 1-1.723-4.583h-5.021v20.15a4.21 4.21 0 0 1-4.209 4.063c-2.307 0-4.225-1.886-4.225-4.225 0-2.796 2.698-4.892 5.476-4.03v-5.135C11.667 14.95 6.76 19.305 6.76 24.862c0 5.41 4.485 9.262 9.246 9.262 5.102 0 9.246-4.144 9.246-9.262V14.64a11.94 11.94 0 0 0 6.988 2.243v-5.021s-3.055.146-5.265-2.405"/></svg>
